.github/assets/images/platform/kube-ovn.svg

<svg width="132" height="101" viewBox="0 0 132 101" fill="none" xmlns="http://www.w3.org/2000/svg">
<path d="M129.42 78.56C114.37 71.36 92.47 83.06 91.63 83.51C87.83 85.46 84.82 86.06 83.57 85.11C82.38 84.2 81.38 81.83 81.37 79.1H81.35L81.37 78.86C81.37 78.53 81.4 78.2 81.44 77.86L82.36 63.87V47.24C82.36 46.87 82.31 46.5 82.22 46.14C80.4 23.61 60.67 6.83004 38.15 8.64004C18.14 10.26 2.26002 26.15 0.66002 46.16C0.57002 46.52 0.52002 46.89 0.52002 47.26V73.87C0.52002 76.49 2.65002 78.62 5.27002 78.62C7.89002 78.62 10.02 76.49 10.02 73.87V66.11C10.02 63.86 11.84 62.04 14.09 62.04H14.26C16.51 62.04 18.33 63.86 18.33 66.11V87.6C18.33 90.22 20.46 92.35 23.08 92.35C25.7 92.35 27.83 90.22 27.83 87.6V66.38C27.83 63.98 29.77 62.04 32.17 62.04H32.37C34.77 62.04 36.71 63.98 36.71 66.38V95.73C36.72 98.35 38.84 100.47 41.46 100.48C44.08 100.47 46.2 98.35 46.21 95.73V76.02C46.21 76.02 46.11 74.73 46.08 74.5C46.07 74.37 46.06 74.23 46.06 74.1V66.38C46.06 63.98 48 62.04 50.4 62.04H50.6C53 62.04 54.94 63.98 54.94 66.38V74.1C54.94 74.25 54.93 74.39 54.91 74.54C54.89 74.74 54.8 76.32 54.8 76.32V87.6C54.8 90.22 56.93 92.35 59.55 92.35C62.17 92.35 64.3 90.22 64.3 87.6V77C64.3 77 64.14 74.49 64.14 74.11V66.39C64.14 63.99 66.08 62.05 68.48 62.05H68.68C71.08 62.05 73.02 63.99 73.02 66.39V73.99L73 74.37C73 74.44 72.98 74.51 72.98 74.58C72.98 74.59 72.98 74.6 72.98 74.6C72.63 80.39 73.28 88.11 78.36 91.99C80.32 93.48 82.73 94.26 85.19 94.21C88.24 94.21 91.75 93.2 95.7 91.17C100.93 88.34 116.51 81.95 125.72 86.37C127.85 87.44 130.45 86.57 131.52 84.44C132.59 82.31 131.72 79.71 129.59 78.64C129.55 78.62 129.5 78.6 129.45 78.57L129.42 78.56Z" fill="#3BAEE4"/>
<path d="M28.41 36.73C27.63 42.78 34.22 46.94 39.73 45.7C46.07 44.28 47.16 34.85 42.57 30.99C39.1 28.08 34.2 28.2 31.06 31.55C29.44 33.28 28.62 35.05 28.41 36.73Z" fill="white"/>
<path d="M36.49 40.91C37.98 41.18 39.04 39.23 37.94 38.13C37.06 37.25 35.52 37.34 35.23 38.57C34.99 39.6 35.35 40.71 36.49 40.91Z" fill="black"/>
<path d="M48.57 38.0999C47.95 42.9299 53.2 46.2399 57.6 45.2599C62.66 44.1299 63.53 36.5999 59.87 33.5299C57.1 31.2099 53.19 31.2999 50.69 33.9699C49.39 35.3399 48.74 36.7499 48.57 38.0999Z" fill="white"/>
<path d="M54.16 40.7299C55.35 40.9399 56.2 39.3899 55.32 38.5099C54.62 37.8099 53.39 37.8799 53.15 38.8699C52.96 39.6799 53.24 40.5699 54.16 40.7299Z" fill="black"/>
<path d="M39.68 3.68005C40.78 3.68005 41.67 4.57005 41.67 5.67005V11.3501C41.67 12.4501 40.78 13.3401 39.68 13.3401C38.58 13.3401 37.69 12.4501 37.69 11.3501V5.67005C37.69 4.57005 38.58 3.68005 39.68 3.68005Z" fill="#3BAEE4"/>
<path d="M39.68 6.86C41.5743 6.86 43.11 5.32434 43.11 3.43C43.11 1.53566 41.5743 0 39.68 0C37.7857 0 36.25 1.53566 36.25 3.43C36.25 5.32434 37.7857 6.86 39.68 6.86Z" fill="#3BAEE4"/>
</svg>

<?xml version="1.0" encoding="utf-8"?>
<!-- Generator: Adobe Illustrator 24.0.1, SVG Export Plug-In . SVG Version: 6.00 Build 0)  -->
<svg version="1.1" id="图层_1" xmlns="http://www.w3.org/2000/svg" xmlns:xlink="http://www.w3.org/1999/xlink" x="0px" y="0px"
	 viewBox="0 0 248.39 100.48" style="enable-background:new 0 0 248.39 100.48;" xml:space="preserve">
<style type="text/css">
	.st0{fill:#3BAEE4;}
	.st1{fill:#FFFFFF;}
	.st2{fill:#333333;}
</style>
<g>
	<path class="st0" d="M129.42,78.56c-15.05-7.2-36.95,4.5-37.79,4.95c-3.8,1.95-6.81,2.55-8.06,1.6c-1.19-0.91-2.19-3.28-2.2-6.01
		h-0.02l0.02-0.24c0-0.33,0.03-0.66,0.07-1l0.92-13.99V47.24c0-0.37-0.05-0.74-0.14-1.1C80.4,23.61,60.67,6.83,38.15,8.64
		C18.14,10.26,2.26,26.15,0.66,46.16c-0.09,0.36-0.14,0.73-0.14,1.1v26.61c0,2.62,2.13,4.75,4.75,4.75s4.75-2.13,4.75-4.75v-7.76
		c0-2.25,1.82-4.07,4.07-4.07l0,0h0.17c2.25,0,4.07,1.82,4.07,4.07l0,0V87.6c0,2.62,2.13,4.75,4.75,4.75s4.75-2.13,4.75-4.75V66.38
		c0-2.4,1.94-4.34,4.34-4.34h0.2c2.4,0,4.34,1.94,4.34,4.34v29.35c0.01,2.62,2.13,4.74,4.75,4.75l0,0c2.62-0.01,4.74-2.13,4.75-4.75
		V76.02c0,0-0.1-1.29-0.13-1.52c-0.01-0.13-0.02-0.27-0.02-0.4v-7.72c0-2.4,1.94-4.34,4.34-4.34h0.2c2.4,0,4.34,1.94,4.34,4.34v7.72
		c0,0.15-0.01,0.29-0.03,0.44c-0.02,0.2-0.11,1.78-0.11,1.78V87.6c0,2.62,2.13,4.75,4.75,4.75c2.62,0,4.75-2.13,4.75-4.75v-10.6
		c0,0-0.16-2.51-0.16-2.89v-7.72c0-2.4,1.94-4.34,4.34-4.34c0,0,0,0,0,0h0.2c2.4,0,4.34,1.94,4.34,4.34v7.6l-0.02,0.38
		c0,0.07-0.02,0.14-0.02,0.21c0,0.01,0,0.02,0,0.02c-0.35,5.79,0.3,13.51,5.38,17.39c1.96,1.49,4.37,2.27,6.83,2.22
		c3.05,0,6.56-1.01,10.51-3.04c5.23-2.83,20.81-9.22,30.02-4.8c2.13,1.07,4.73,0.2,5.8-1.93c1.07-2.13,0.2-4.73-1.93-5.8
		c-0.04-0.02-0.09-0.04-0.14-0.07L129.42,78.56z"/>
	<path class="st1" d="M28.41,36.73c-0.78,6.05,5.81,10.21,11.32,8.97c6.34-1.42,7.43-10.85,2.84-14.71
		c-3.47-2.91-8.37-2.79-11.51,0.56C29.44,33.28,28.62,35.05,28.41,36.73L28.41,36.73z"/>
	<path d="M36.49,40.91c1.49,0.27,2.55-1.68,1.45-2.78c-0.88-0.88-2.42-0.79-2.71,0.44C34.99,39.6,35.35,40.71,36.49,40.91
		L36.49,40.91z"/>
	<path class="st1" d="M48.57,38.1c-0.62,4.83,4.63,8.14,9.03,7.16c5.06-1.13,5.93-8.66,2.27-11.73c-2.77-2.32-6.68-2.23-9.18,0.44
		C49.39,35.34,48.74,36.75,48.57,38.1z"/>
	<path d="M54.16,40.73c1.19,0.21,2.04-1.34,1.16-2.22c-0.7-0.7-1.93-0.63-2.17,0.36C52.96,39.68,53.24,40.57,54.16,40.73z"/>
	<path class="st0" d="M39.68,3.68L39.68,3.68c1.1,0,1.99,0.89,1.99,1.99v5.68c0,1.1-0.89,1.99-1.99,1.99h0
		c-1.1,0-1.99-0.89-1.99-1.99V5.67C37.69,4.57,38.58,3.68,39.68,3.68z"/>
	<circle class="st0" cx="39.68" cy="3.43" r="3.43"/>
	<path class="st2" d="M179.87,60.8c0-0.04,0-0.08,0-0.13s0-0.02,0-0.03v-0.02c0-0.01,0-0.02,0-0.03c-0.09-0.98-0.8-1.79-1.76-2.01
		c-0.04-0.01-0.08-0.02-0.12-0.02c-0.17-0.03-0.34-0.04-0.51-0.03l-9.96,0.54c-1.25,0.07-2.22,1.14-2.15,2.39
		c0.07,1.25,1.14,2.22,2.39,2.15l9.96-0.54c1.17-0.07,2.1-1.01,2.15-2.19C179.88,60.85,179.88,60.83,179.87,60.8z"/>
	<path class="st2" d="M145.71,58.45c-0.17-1.19-0.57-2.34-1.17-3.37c-0.39-0.66-0.93-1.22-1.57-1.64c-0.62-0.42-1.32-0.71-2.06-0.87
		c-0.74-0.16-1.5-0.2-2.26-0.13c-0.75,0.07-1.49,0.26-2.17,0.58c-0.24,0.12-0.47,0.24-0.7,0.34c-0.23,0.11-0.45,0.23-0.67,0.34
		c0.05-1.06,0.08-1.95,0.09-2.67c0.01-0.72,0-1.36,0-1.9c0-0.22-0.01-0.42-0.03-0.62v-1.98c0-1.29-1.04-2.33-2.33-2.33
		s-2.33,1.04-2.33,2.33v2.06c-0.03,4.13-0.11,13.93-0.02,14.65c0,0.03,0.01,0.05,0.02,0.08c0.15,2.35,1.27,6.78,7.68,5.91h0.05
		c0.27-0.03,0.54-0.08,0.81-0.13c0.62-0.08,1.23-0.25,1.8-0.51c0.3-0.11,0.59-0.23,0.88-0.37c1.13-0.5,2.07-1.35,2.69-2.42
		c0.64-1.09,1.07-2.28,1.26-3.53C145.91,61.01,145.91,59.71,145.71,58.45z M138.77,64.74c-1.85,0-3.35-1.82-3.35-4.07
		c0-2.25,1.5-4.07,3.35-4.07s3.34,1.82,3.34,4.07C142.12,62.92,140.63,64.74,138.77,64.74z"/>
	<path class="st2" d="M163.78,64.04c-0.57-0.84-1.65-1.16-2.58-0.76l0,0c-0.12,0.05-0.23,0.11-0.34,0.18l-0.18,0.12
		c-0.74,0.43-1.5,0.83-2.27,1.18c-0.57,0.21-1.17,0.37-1.77,0.45c-0.68,0.1-1.37,0.07-2.04-0.09c-0.68-0.17-1.29-0.56-1.73-1.1
		c0.75-0.24,1.52-0.45,2.33-0.65c0.8-0.19,1.59-0.43,2.37-0.71c0.77-0.28,1.51-0.6,2.24-0.97c0.73-0.38,1.4-0.88,1.99-1.46
		c0.59-0.56,1-1.28,1.17-2.08c0.16-0.75,0.14-1.52-0.05-2.26c-0.2-0.76-0.57-1.47-1.07-2.08c-0.5-0.62-1.14-1.12-1.86-1.46
		c-0.94-0.42-1.96-0.6-2.98-0.52c-0.34,0.02-0.67,0.05-1,0.1l0,0c-5.03,0.52-6.96,3.39-7.7,5.54l0,0c-0.16,0.46-0.28,0.94-0.36,1.42
		c-0.35,1.8-0.56,4.95,1.38,7.27c0.6,0.86,1.35,1.6,2.22,2.19c0.79,0.52,1.67,0.88,2.6,1.05c0.99,0.17,2,0.17,2.98,0
		c1.15-0.19,2.27-0.49,3.36-0.9c0.53-0.19,1.05-0.42,1.55-0.69l0.23-0.13l0,0c1.15-0.66,1.38-1.07,1.38-1.07l0,0
		C164.25,65.89,164.32,64.83,163.78,64.04z M155.2,55.94c1.36-0.58,2.76-0.31,3.15,0.59s-0.39,2.11-1.74,2.69
		c-1.35,0.58-2.76,0.32-3.15-0.59C153.07,57.72,153.85,56.52,155.2,55.94z"/>
	<path class="st2" d="M122.78,67.75L122.78,67.75c0,0,1.8,2.51,4.71-0.05l0.77-0.77c0.71-0.77,0.67-1.97-0.1-2.68
		c-0.65-0.6-1.63-0.68-2.36-0.18c-0.05-0.14-0.11-0.29-0.15-0.44c-0.21-0.71-0.35-1.44-0.42-2.17c-0.07-0.74-0.1-1.49-0.07-2.24
		c0.03-0.75,0.06-1.46,0.11-2.13c0.02-0.36,0.07-0.75,0.12-1.17c0.06-0.41,0.09-0.83,0.09-1.25c0-0.39-0.06-0.78-0.18-1.16
		c0-0.01-0.01-0.03-0.02-0.05c-0.22-1.21-1.37-2.02-2.58-1.8c-1.09,0.19-1.87,1.15-1.84,2.25v1.39c0,0.05,0,0.1,0,0.15v4.69l0,0
		c0.02,0.98,0.02,2.01-0.04,2.63c-0.49,1.53-2.13,2.37-3.66,1.87c-1.2-0.39-2.02-1.51-2.01-2.78v-1.95c0-0.31,0-0.62,0-0.94v-0.11
		c0-0.02,0-0.04,0-0.06c0-0.37,0.03-0.74,0.06-1.12c0.11-1.24,0.14-2.48,0.09-3.72c0-0.05-0.01-0.09-0.02-0.13
		c-0.03-1.2-1.03-2.15-2.23-2.11c-1.2,0.03-2.15,1.03-2.11,2.23l0,0v0.25c-0.04,0.28-0.05,0.56-0.05,0.84c0,0.3-0.01,0.61-0.04,0.92
		c-0.02,0.41-0.05,0.8-0.07,1.17c-0.02,0.37-0.04,0.75-0.04,1.14c-0.03,1.11-0.01,2.27,0.05,3.5c0.04,1.17,0.35,2.32,0.88,3.36
		c0.51,1.01,1.24,1.89,2.13,2.58c0.79,0.62,1.72,1.03,2.71,1.21c0.98,0.17,1.99,0.1,2.94-0.2c1.05-0.33,2.03-0.87,2.88-1.58
		L122.78,67.75z"/>
	<path class="st2" d="M204.24,53.49c-0.13-0.92-0.4-1.81-0.8-2.65c-0.39-0.85-0.92-1.64-1.55-2.33c-0.46-0.51-0.97-0.97-1.54-1.36
		c-0.57-0.38-1.17-0.72-1.79-1.01c-0.78-0.36-1.61-0.61-2.47-0.74c-0.85-0.13-1.71-0.16-2.57-0.1c-1.61,0.14-3.16,0.66-4.53,1.51
		c-1.35,0.84-2.54,1.92-3.5,3.18c-0.98,1.29-1.74,2.73-2.26,4.26c-0.53,1.51-0.81,3.1-0.85,4.71c-0.01,0.94,0.07,1.87,0.22,2.79
		c0.16,0.96,0.44,1.9,0.84,2.78c0.39,0.87,0.92,1.68,1.57,2.38c0.67,0.72,1.49,1.27,2.4,1.63c0.52,0.31,1.07,0.57,1.65,0.76
		c0.77,0.23,1.56,0.4,2.37,0.5c1.44,0.16,2.89-0.02,4.24-0.54c1.26-0.5,2.42-1.23,3.42-2.14c1.03-0.94,1.92-2.02,2.65-3.21
		c0.56-0.89,1.06-1.82,1.5-2.78l0.64-1.84c0.18-0.81,0.32-1.63,0.41-2.44C204.41,55.73,204.39,54.6,204.24,53.49z M198.43,59.02
		c-1.09,3.33-4.21,5.3-7,4.4c-2.79-0.9-4.18-4.34-3.1-7.66c1.07-3.32,4.21-5.3,7-4.4C198.11,52.26,199.5,55.69,198.43,59.02z"/>
	<path class="st2" d="M225.12,45.34c-1.05-0.49-2.29-0.03-2.78,1.02c0,0,0,0,0,0l-6.29,13.56l-5.24-12.98
		c-0.43-1.07-1.65-1.59-2.72-1.16s-1.59,1.65-1.16,2.72L212,61.05l2.11,5.59c0.03,0.1,0.06,0.2,0.11,0.29l0,0l0,0
		c0.33,0.69,1.02,1.13,1.79,1.14h0.14c0.2-0.01,0.4-0.05,0.59-0.12c0.17-0.06,0.32-0.16,0.46-0.27c0.32-0.25,0.56-0.58,0.69-0.97
		c0.05-0.11,0.1-0.22,0.15-0.34l5.52-12.75l2.57-5.51C226.61,47.06,226.16,45.82,225.12,45.34z"/>
	<path class="st2" d="M246.12,43.74h-0.1c-1.29-0.03-2.35,0.99-2.39,2.27l-0.35,13.72c-0.52-0.75-1.04-1.49-1.58-2.24l-0.2-0.27
		l-0.57-0.71l-7.95-10.91l0,0c-0.83-1.02-2.33-1.18-3.35-0.35c-0.56,0.45-0.88,1.13-0.88,1.85v21.38c0.04,1.32,1.15,2.35,2.46,2.3
		c1.25-0.04,2.26-1.05,2.3-2.3V54.64l2.97,4.15l6.93,10.27l0,0c0.41,0.68,1.14,1.11,1.93,1.13h0.1c1.29,0.03,2.35-0.99,2.39-2.27
		l0.12-4.69c0.08-1.98,0.15-3.95,0.2-5.93c0.04-1.65,0.06-3.3,0.07-4.95l0.16-6.21C248.42,44.84,247.4,43.77,246.12,43.74z"/>
	<path class="st2" d="M108.23,65.26c-1.82-2.25-5.2-5.46-5.43-5.68c-0.23-0.22-0.47-0.5-0.7-0.75l-1.77-1.91
		c0.84-0.78,1.41-1.34,1.41-1.34c0.51-0.46,1-0.93,1.48-1.43s0.94-1,1.37-1.52c0.09-0.11,0.18-0.22,0.27-0.33l0,0
		c2-2.21,2.28-3.26,2.28-3.26c0.57-1.06,0.17-2.37-0.88-2.94c-0.73-0.39-1.62-0.34-2.29,0.15l-8.26,7.98c0-1.01,0-2.02,0.03-3.01
		c0-0.18,0-0.36,0-0.54c0-0.07,0-0.13,0-0.2v-3.26c0-1.22-0.99-2.21-2.21-2.21s-2.21,0.99-2.21,2.21v3.26c0,0.06,0,0.12,0,0.17
		c-0.01,0.76-0.01,1.46,0,2.1c0,0.65,0.02,1.01,0.02,1.09v7.55c0,0.14,0,0.54-0.02,1.17c-0.02,0.63,0,1.33,0.02,2.08
		c0,0.23,0.02,0.44,0.03,0.66l0,0l0.07,2.82v0.05c0,0.02,0,0.03,0,0.05v0.09l0,0c0.09,1.2,1.13,2.09,2.33,2
		c1.01-0.08,1.83-0.84,1.98-1.84V66c-0.03-0.96-0.06-1.91-0.08-2.86c-0.02-0.78-0.02-1.55-0.03-2.34c0.44-0.3,0.9-0.66,1.37-1.03
		l2.78,2.95c1.11,1.18,2.23,2.38,3.36,3.61c0.12,0.12,0.27,0.27,0.43,0.49l0.52,0.63c0.18,0.22,0.37,0.43,0.58,0.63
		c0.19,0.19,0.39,0.36,0.6,0.52c0.37,0.3,0.84,0.45,1.32,0.43c0.22-0.01,0.45-0.06,0.66-0.14c0.35-0.1,0.68-0.28,0.94-0.54
		C109.06,67.51,109.07,66.13,108.23,65.26z"/>
</g>
</svg>
